svg/u264a.svg

<svg viewBox="0 0 128 128" xmlns="http://www.w3.org/2000/svg">
  <circle cx="64" cy="64" r="60" fill="#F57C00"/>
  <circle cx="60.1" cy="63.1" r="56.1" fill="#FFA726"/>
  <path d="M24,29.7c4.5-7.1,14.1-13,24.1-14.8c2.5-0.4,5-0.6,7.1,0.2 c1.6,0.6,2.9,2.1,2,3.8c-0.7,1.4-2.6,2-4.1,2.5c-9.3,3-17.9,6.4-23.1,14.3c-2,3-4.9,14.4-8.6,12.3C17.5,45.7,18.3,38.5,24,29.7z" opacity="0.65" fill="#F9CB8F" enable-background="new "/>
  <path d="M84,84.1V43.9c0-0.9,0.6-1.7,1.5-1.9c4.4-1,16.2-4.5,10.1-11c-0.5-0.6-1.2-0.9-2-1 c-1,0-1.9,0.3-2.7,0.8c-2.1,1.6-4.5,2.8-7.1,3.4C79,35.2,74,36,64,36s-15-0.8-19.9-1.8c-2.6-0.5-5-1.7-7.1-3.4 c-0.7-0.6-1.7-0.9-2.7-0.9c-0.8,0-1.5,0.4-2,1c-6.1,6.4,5.8,9.9,10.1,11c0.9,0.2,1.5,1,1.5,1.9v40.1c0,0.9-0.6,1.7-1.5,1.9 c-3.8,0.9-13.1,3.7-11.7,8.8c0.5,1.7,2.2,3.2,4,3.2c0.9,0,1.7-0.3,2.4-0.9c2-1.6,4.4-2.8,6.9-3.3c4.9-1,9.9-1.8,20-1.8 s15.1,0.8,20,1.8c2.5,0.5,4.9,1.7,6.9,3.3c0.7,0.5,1.5,0.9,2.4,0.9c1.8,0.1,3.5-1.4,4-3.2c1.4-5.1-7.9-7.9-11.7-8.8 C84.6,85.8,84,85,84,84.1L84,84.1z M52,82.3V45.6c0-1.2,1-2.1,2.2-2c2.9,0.2,6.1,0.3,9.8,0.3c3.7,0,6.9-0.1,9.8-0.3 c1.2-0.1,2.2,0.8,2.2,2v36.7c0,1.2-1,2.1-2.2,2C70.9,84.1,67.7,84,64,84s-6.9,0.1-9.8,0.3C53,84.4,52,83.5,52,82.3z" fill="#FAFAFA"/>
  <path d="M24,29.7c4.5-7.1,14.1-13,24.1-14.8c2.5-0.4,5-0.6,7.1,0.2 c1.6,0.6,2.9,2.1,2,3.8c-0.7,1.4-2.6,2-4.1,2.5c-9.3,3-17.9,6.4-23.1,14.3c-2,3-4.9,14.4-8.6,12.3C17.5,45.7,18.3,38.5,24,29.7z" opacity="0.35" fill="#F9CB8F" enable-background="new "/>
</svg>

<svg viewBox="0 0 128 128" xmlns="http://www.w3.org/2000/svg">
  <defs/>
  <path d="M124,64 A60 60 0 1 1 4,64 A60 60 0 1 1 124,64 Z" fill="#F57C00"/>
  <path d="M116.2,63.1 A56.1 56.1 0 1 1 4,63.1 A56.1 56.1 0 1 1 116.2,63.1 Z" fill="#FFA726"/>
  <path d="M24,29.7 C28.5,22.6 38.1,16.7 48.1,14.9 C50.6,14.5 53.1,14.3 55.2,15.1 C56.8,15.7 58.1,17.2 57.2,18.9 C56.5,20.3 54.6,20.9 53.1,21.4 C43.8,24.4 35.2,27.8 30,35.7 C28,38.7 25.1,50.1 21.4,48 C17.5,45.7 18.3,38.5 24,29.7 Z" fill="#F9CB8F" opacity="0.65"/>
  <path d="M84,84.1 L84,43.9 C84,43 84.6,42.2 85.5,42 C89.9,41 101.7,37.5 95.6,31 C95.1,30.4 94.4,30.1 93.6,30 C92.6,30 91.7,30.3 90.9,30.8 C88.8,32.4 86.4,33.6 83.8,34.2 C79,35.2 74,36 64,36 C54,36 49,35.2 44.1,34.2 C41.5,33.7 39.1,32.5 37,30.8 C36.3,30.2 35.3,29.9 34.3,29.9 C33.5,29.9 32.8,30.3 32.3,30.9 C26.2,37.3 38.1,40.8 42.4,41.9 C43.3,42.1 43.9,42.9 43.9,43.8 L43.9,83.9 C43.9,84.8 43.3,85.6 42.4,85.8 C38.6,86.7 29.3,89.5 30.7,94.6 C31.2,96.3 32.9,97.8 34.7,97.8 C35.6,97.8 36.4,97.5 37.1,96.9 C39.1,95.3 41.5,94.1 44,93.6 C48.9,92.6 53.9,91.8 64,91.8 C74.1,91.8 79.1,92.6 84,93.6 C86.5,94.1 88.9,95.3 90.9,96.9 C91.6,97.4 92.4,97.8 93.3,97.8 C95.1,97.9 96.8,96.4 97.3,94.6 C98.7,89.5 89.4,86.7 85.6,85.8 C84.6,85.8 84,85 84,84.1 L84,84.1 Z M52,82.3 L52,45.6 C52,44.4 53,43.5 54.2,43.6 C57.1,43.8 60.3,43.9 64,43.9 C67.7,43.9 70.9,43.8 73.8,43.6 C75,43.5 76,44.4 76,45.6 L76,82.3 C76,83.5 75,84.4 73.8,84.3 C70.9,84.1 67.7,84 64,84 C60.3,84 57.1,84.1 54.2,84.3 C53,84.4 52,83.5 52,82.3 Z" fill="#FAFAFA"/>
  <path d="M24,29.7 C28.5,22.6 38.1,16.7 48.1,14.9 C50.6,14.5 53.1,14.3 55.2,15.1 C56.8,15.7 58.1,17.2 57.2,18.9 C56.5,20.3 54.6,20.9 53.1,21.4 C43.8,24.4 35.2,27.8 30,35.7 C28,38.7 25.1,50.1 21.4,48 C17.5,45.7 18.3,38.5 24,29.7 Z" fill="#F9CB8F" opacity="0.35"/>
</svg>
